X:1
T:The Yellow-Haired Laddie
T:The Yellow-Haired Laddie
T:Orpheus Caledonius, 1725
C:Orpheus Caledonius, 1725
L:1/8
M:3/4
K:D
V:1 treble 
V:1
 D>E |"D" F2 A2"C#" Bc |"Bm" d3 e f2 |"D" A2"G" BA"Em" GF |"A7" [CE]4 D>E |"D" F2 A2"C#" B>c | %6
"Bm" dc de f2 |"D" AB AF"A7" E>D |"D" D4 D>E |"D" F2 A2"C#" Bc |"Bm" d3 e f2 | %11
"F#m" A2"G" BA"Em" GF |"A7" [CE]4 D>E |"D" F2 A2"C#" B>c |"Bm" dc de f2 |"F#m" A2"G" gf"A7" ed | %16
"D" [Fd]4 || d>e |"D" f2 gf"Em" ed |"A" c2 ec"F#m" BA |"G" Bc dB"D" AF |"A7" [CE]4 DE | %22
"D" F2 A2"C#" Bc |"Bm" dc de f2 |"D" A>B AF"A7" ED |"D" D4 d>e |"D" f2 gf"Em" ed | %27
"A" c2 ec"F#m" BA |"G" Bc dB"D" AF |"A7" [CE]4 DE |"D" F2 A2"C#" Bc |"Bm" dc de f2 | %32
"F#m" A2"G" gf"A7" ed |"D" [Fd]4 |] %34

